www/assets/icons/draw.svg

<svg width="24" height="24" viewBox="0 0 24 24" xmlns="http://www.w3.org/2000/svg" fill='currentColor'><path d="M19.1025 10.39L20.1625 9.33C20.9425 8.55 20.9425 7.28 20.1625 6.5L18.7525 5.09C17.9725 4.31 16.7025 4.31 15.9225 5.09L14.8625 6.15L19.1025 10.39ZM13.4425 7.56L4.2525 16.76V21H8.4925L17.6825 11.81L13.4425 7.56ZM19.2525 17.5C19.2525 19.69 16.7125 21 14.2525 21C13.7025 21 13.2525 20.55 13.2525 20C13.2525 19.45 13.7025 19 14.2525 19C15.7925 19 17.2525 18.27 17.2525 17.5C17.2525 17.03 16.7725 16.63 16.0225 16.3L17.5025 14.82C18.5725 15.45 19.2525 16.29 19.2525 17.5ZM4.8325 13.35C3.8625 12.79 3.2525 12.06 3.2525 11C3.2525 9.2 5.1425 8.37 6.8125 7.64C7.8425 7.18 9.2525 6.56 9.2525 6C9.2525 5.59 8.4725 5 7.2525 5C5.9925 5 5.4525 5.61 5.4225 5.64C5.0725 6.05 4.4425 6.1 4.0225 5.76C3.6125 5.42 3.5325 4.81 3.8725 4.38C3.9825 4.24 5.0125 3 7.2525 3C9.4925 3 11.2525 4.32 11.2525 6C11.2525 7.87 9.3225 8.72 7.6125 9.47C6.6725 9.88 5.2525 10.5 5.2525 11C5.2525 11.31 5.6825 11.6 6.3225 11.86L4.8325 13.35Z"/></svg>

<svg xmlns="http://www.w3.org/2000/svg" width="24" height="24" viewBox="0 0 24 24" fill='currentColor'><path d="m19.103 10.39 1.06-1.06c.78-.78.78-2.05 0-2.83l-1.41-1.41c-.78-.78-2.05-.78-2.83 0l-1.06 1.06zm-5.66-2.83-9.19 9.2V21h4.24l9.19-9.19zm5.81 9.94c0 2.19-2.54 3.5-5 3.5-.55 0-1-.45-1-1s.45-1 1-1c1.54 0 3-.73 3-1.5 0-.47-.48-.87-1.23-1.2l1.48-1.48c1.07.63 1.75 1.47 1.75 2.68m-14.42-4.15c-.97-.56-1.58-1.29-1.58-2.35 0-1.8 1.89-2.63 3.56-3.36 1.03-.46 2.44-1.08 2.44-1.64 0-.41-.78-1-2-1-1.26 0-1.8.61-1.83.64-.35.41-.98.46-1.4.12a.99.99 0 0 1-.15-1.38C3.983 4.24 5.013 3 7.252 3s4 1.32 4 3c0 1.87-1.93 2.72-3.64 3.47-.94.41-2.36 1.03-2.36 1.53 0 .31.43.6 1.07.86z"/></svg>
